build/img/icons/triangle.svg

<svg width="40" height="40" viewBox="0 0 40 40" fill="none" xmlns="http://www.w3.org/2000/svg">
<path d="M0.00523444 33.2746C0.00953132 33.2269 0.0189844 33.1798 0.0335157 33.1342C0.0406251 33.0961 0.0510157 33.0588 0.0645313 33.0225L0.00523444 33.2746ZM0.00523444 33.2746C0.00497694 33.2788 0.00380141 33.2827 0.00262947 33.2865C0.00131247 33.2909 0 33.2952 0 33.3V39.1467L0.00523444 33.2746ZM-0.160728 33.0853C-0.151614 33.0401 -0.138935 32.9957 -0.122868 32.9526L-0.117745 32.9389L-0.110672 32.9261C-0.0877524 32.8844 -0.0614718 32.8449 -0.0320185 32.8076C-0.00370853 32.7636 0.028544 32.7224 0.0644142 32.6842C0.0662282 32.6817 0.0683072 32.6788 0.0705729 32.6759C0.0780018 32.6662 0.0888957 32.6535 0.103914 32.6407L-0.160728 33.0853ZM-0.160728 33.0853C-0.176192 33.1364 -0.186783 33.1888 -0.192479 33.2416C-0.193272 33.2447 -0.194111 33.2482 -0.1949 33.2519C-0.197435 33.2639 -0.2 33.2804 -0.2 33.3V39.1467C-0.200082 39.3765 -0.108753 39.597 0.0538119 39.7596L0.0538131 39.7596C0.216343 39.9221 0.436833 40.0134 0.666719 40.0134H39.3333C39.3333 40.0134 39.3333 40.0134 39.3334 40.0134C39.5632 40.0135 39.7837 39.9221 39.9463 39.7596C40.1088 39.597 40.2001 39.3765 40.2001 39.1467V0.853381V0.840449L40.1984 0.827624C40.1941 0.794434 40.1878 0.761308 40.1795 0.72837C40.1733 0.673473 40.1618 0.619339 40.1451 0.566774L40.1426 0.558788L40.1394 0.551042C40.1183 0.499788 40.0921 0.45063 40.0613 0.40439C40.0466 0.373946 40.0302 0.344704 40.0123 0.316758L40.0055 0.306156L39.9975 0.296489C39.9844 0.280812 39.9714 0.269494 39.9616 0.26187C39.9584 0.259416 39.9554 0.257172 39.9527 0.25524C39.9148 0.218906 39.8736 0.185928 39.8294 0.156894C39.7918 0.127114 39.7518 0.100621 39.71 0.0776366L39.6984 0.0712402L39.686 0.066439C39.6417 0.0492646 39.5958 0.0356821 39.549 0.0260461C39.4983 0.0107416 39.4465 0.00023903 39.3941 -0.00542669C39.3906 -0.00632876 39.3866 -0.00731282 39.3823 -0.00822705C39.3703 -0.010774 39.3535 -0.0134155 39.3334 -0.0134155H39.3209L39.3086 -0.011863C39.2742 -0.00755428 39.2402 -0.00108233 39.2068 0.00747137C39.1527 0.0136057 39.0992 0.0249706 39.0471 0.0415332L39.0394 0.0440068L39.0318 0.0471062C38.9803 0.0682416 38.9313 0.0942955 38.8852 0.12492C38.8544 0.139729 38.8248 0.156332 38.7965 0.174473L38.7856 0.18142L38.7757 0.189702L0.284878 32.4863L0.283601 32.4873L0.104737 32.64L-0.160728 33.0853ZM1.53336 33.7043L38.4666 2.71214V4.80231L19.4032 20.7998L19.4025 20.8003L19.3991 20.8032L19.3984 20.8038L5.43917 32.518L5.43863 32.5184L5.43159 32.5244L5.43106 32.5248L2.54509 34.9467H1.53336V33.7043ZM38.4667 38.28H1.53336V36.68H38.4667V38.28ZM38.4667 34.9467H5.2406L6.35295 34.0133H38.4667V34.9467ZM8.41846 32.28L19.1334 23.2887V32.28H8.41846ZM20.8666 32.28V21.8342L21.6364 21.1883L21.8 21.3519V32.28H20.8666ZM23.688 19.4668L35.8 31.5788V32.28H35.1792L22.9691 20.07L23.688 19.4668ZM35.8 29.1277L25.0207 18.3484L35.8 9.30307V29.1277ZM23.5334 23.0852L32.7281 32.28H23.5334V23.0852ZM38.4666 32.28H37.5333V7.84852L38.4666 7.06533V32.28Z" fill="#5CC773" stroke="#5CC773" stroke-width="0.4"/>
</svg>

<svg width="40" height="40" fill="none" xmlns="http://www.w3.org/2000/svg">
    <path d="M.005 33.275a.656.656 0 0 1 .029-.14.674.674 0 0 1 .03-.112l-.059.252zm0 0a.05.05 0 0 1-.002.011L0 33.3v5.847l.005-5.872zm-.166-.19a.875.875 0 0 1 .038-.132l.005-.014.007-.013a.858.858 0 0 1 .079-.118.86.86 0 0 1 .096-.124l.007-.008a.23.23 0 0 1 .033-.035l-.265.444zm0 0a.857.857 0 0 0-.034.167.232.232 0 0 0-.005.048v5.847a.867.867 0 0 0 .867.867h38.666a.867.867 0 0 0 .867-.867V.84l-.002-.012a.856.856 0 0 0-.019-.1.848.848 0 0 0-.034-.161l-.002-.008-.004-.008a.845.845 0 0 0-.078-.147.838.838 0 0 0-.049-.087l-.007-.01-.008-.01a.234.234 0 0 0-.044-.042.862.862 0 0 0-.124-.098.859.859 0 0 0-.119-.08l-.012-.006-.012-.005a.858.858 0 0 0-.137-.04.853.853 0 0 0-.167-.034.235.235 0 0 0-.049-.005h-.012l-.012.001a.822.822 0 0 0-.102.02.84.84 0 0 0-.16.034l-.008.002-.007.003a.843.843 0 0 0-.147.078.834.834 0 0 0-.088.05l-.011.006-.01.009L.285 32.486l-.001.001-.18.153-.265.445zm1.694.62L38.467 2.711v2.09L19.403 20.8l-.004.003-13.96 11.715-.007.006-2.887 2.423H1.533v-1.243zm36.934 4.575H1.533v-1.6h36.934v1.6zm0-3.333H5.24l1.112-.934h32.114v.934zM8.418 32.28l10.715-8.991v8.991H8.418zm12.449 0V21.834l.77-.646.163.164V32.28h-.933zm2.821-12.813L35.8 31.579v.701h-.62L22.97 20.07l.718-.603zm12.112 9.66L25.02 18.349 35.8 9.303v19.825zm-12.267-6.042 9.195 9.195h-9.195v-9.195zm14.934 9.195h-.934V7.849l.934-.784V32.28z" fill="#5CC773" stroke="#5CC773" stroke-width=".4"/>
</svg>
